**kern	**kern	**dynam
*part1	*part1	*part1
*staff2	*staff1	*
*I"Piano	*	*
*clefF4	*clefG2	*
*k[f#c#]	*k[f#c#]	*
=1	=1	=1
8DD 8D	8f# 8a 8dd	f
.	(8qee/	.
8F#L 8A	(16ddLL)	.
.	16cc#J	.
8DJ 8F#	8ddJ)	.
=	=	=
8F# 8A	8ff#'L	.
8AAAL 8AA	8a'	.
8EJ 8G 8A	8cc#'J	.
=	=	=
8DL 8F#	8f#L 8a 8dd	.
.	(8qee/	.
8F# 8A	(16ddL)	.
.	16cc#J	.
8DJ 8F#	8ddJ)	.
=	=	=
8F# 8A	8f#L 8a 8ff#	.
8AAAL 8AA	8a	.
8EJ 8G 8A	8cc#J	.
=	=	=
8D 8A	8f# 8dd	.
8r	8r	.
8r	8r	.
=	=	=
4.r	4.r	.
=	=	=
!	!	!LO:DY:a
4FF#	8r	p
.	8AL 8c# 8f#	.
8r	8AJ 8c# 8f#	.
=	=	=
*-	*-	*-
!!!system-decoration: {(s1,s2)}
